X:650
T:Miss Johnston
R:Reel
B:The Athole Collection
M:C|
L:1/8
K:D
d|AFED EB,B,B|AFED B2Bd|AFED EB,B,e|dBAF D/D/D D:|
f|dfaf geef|dfaf g2gb|afdf edBe|dBAF D/D/D Df|dfaf geef|
dfaf g2gb|afge fdec|dBdF D/D/D D||

